website/static/img/icons/white/dbt-core.svg

<svg fill="none" height="90" viewBox="0 0 404 90" width="404" xmlns="http://www.w3.org/2000/svg" xmlns:xlink="http://www.w3.org/1999/xlink"><clipPath id="a"><path d="m0 0h404v90h-404z"/></clipPath><g clip-path="url(#a)"><g fill="#fff"><path d="m256 48.2601c0-17.36 10.23-27.94 23.89-27.94 2.801.0162 5.568.619 8.122 1.7695 2.555 1.1505 4.84 2.8232 6.708 4.9105l-3.72 4.41c-1.366-1.5805-3.054-2.8506-4.952-3.7251-1.897-.8744-3.959-1.333-6.048-1.3449-10.17 0-16.93 8.33-16.93 21.73s6.45 22 16.66 22c5.14 0 9-2.23 12.47-6l3.8 4.26c-4.26 4.94-9.52 7.77-16.52 7.77-13.4 0-23.48-10.37-23.48-27.84z"/><path d="m299.6 55.24c0-13.3 8.7-21 18.47-21s18.47 7.67 18.47 21-8.7 20.86-18.47 20.86-18.47-7.66-18.47-20.86zm30 0c0-9.13-4.64-15.35-11.5-15.35s-11.5 6.22-11.5 15.35 4.65 15.25 11.5 15.25 11.47-6.12 11.47-15.25z"/><path d="m344.22 35.2599h6l.1 7.26c2.78-5.06 7.07-8.25 11.56-8.25 1.461-.064 2.917.2169 4.25.82l-1.22 5.91c-1.238-.4422-2.545-.6622-3.86-.65-3.37 0-7.39 2.42-10.09 9.16v25.6h-6.74z"/><path d="m366.1 55.24c0-13 8.75-21 17.92-21 10.17 0 15.91 7.3 15.91 18.71.011 1.2838-.096 2.5659-.32 3.83h-26.84c.48 8.44 5.64 13.92 13.24 13.92 3.555-.0263 7.016-1.1394 9.92-3.19l2.42 4.49c-3.875 2.6625-8.459 4.1012-13.16 4.13-10.63-.03-19.09-7.8-19.09-20.89zm27.9-3.24c0-8-3.6-12.33-9.83-12.33-5.6 0-10.61 4.5-11.43 12.33z"/><path d="m154.15 13.9199v61.45h-12.45v-6.27c-1.29 2.1982-3.186 3.979-5.46 5.13-2.487 1.2317-5.225 1.8717-8 1.87-3.448.085-6.837-.9116-9.69-2.85-2.906-1.9326-5.216-4.6372-6.67-7.81-1.629-3.6322-2.435-7.5798-2.36-11.56-.084-3.9552.722-7.8787 2.36-11.48 1.455-3.1054 3.734-5.7517 6.59-7.65 2.919-1.8426 6.32-2.7755 9.77-2.68 2.692-.0308 5.353.583 7.76 1.79 2.25 1.1224 4.138 2.8551 5.45 5v-20.79zm-15 49.32c1.63-2.12 2.53-5.21 2.53-9.2s-.82-7-2.53-9.11c-.901-1.0173-2.005-1.8333-3.243-2.395-1.237-.5617-2.578-.8564-3.937-.8649s-2.704.2694-3.948.8156-2.359 1.3484-3.272 2.3543c-1.71 2.12-2.61 5.13-2.61 9s.9 7.08 2.61 9.28c.861 1.0888 1.966 1.9608 3.225 2.546s2.637.8674 4.025.824c1.367.0666 2.731-.1935 3.978-.7587 1.247-.5651 2.341-1.4191 3.192-2.4913z"/><path d="m225 42.48v16.44c-.12.9014-.034 1.8183.252 2.6815s.764 1.6502 1.399 2.3013c.635.6512 1.409 1.1495 2.265 1.4574.855.3079 1.77.4172 2.674.3198 1.401-.022 2.795-.2134 4.15-.57v9.77c-2.313.8056-4.752 1.1851-7.2 1.12-5.207 0-9.207-1.4667-12-4.4s-4.177-7.0833-4.15-12.45v-36.04l12.61-4.11v14h10.74v9.44z"/></g><path d="m86.19 3.74c2.1287 2.02368 3.4774 4.73181 3.81 7.65-.0298 1.2675-.3734 2.5078-1 3.61-.74 1.54-9.77 17.17-12.46 21.48-1.5397 2.5573-2.3554 5.485-2.36 8.47-.0063 2.9834.8103 5.9107 2.36 8.46 2.65 4.29 11.68 20 12.46 21.59.6147 1.0527.9584 2.2416 1 3.46-.3807 2.8642-1.6934 5.5236-3.7357 7.5677-2.0422 2.044-4.7004 3.3591-7.5643 3.7423-1.2394-.0403-2.4465-.4058-3.5-1.06-1.46-.71-17.41-9.52-21.73-12.21-.32-.16-.65-.4-1.06-.57l-21.32-12.61c.4555 4.0943 2.2933 7.9109 5.21 10.82.559.5587 1.1572 1.0767 1.79 1.55-.5326.2383-1.0502.5088-1.55.81-4.31 2.69-20.02 11.72-21.54 12.5-1.0982.6362-2.341.9805-3.61 1-2.88954-.2908-5.57558-1.6196-7.56-3.74-2.13116-2.0202-3.486463-4.7237-3.83-7.64.0647854-1.2353.428539-2.4363 1.06-3.5.73-1.55 9.76-17.25 12.45-21.57 1.5541-2.5474 2.371-5.476 2.36-8.46.0097-2.987-.8071-5.9184-2.36-8.47-2.69-4.47-11.8-20.18-12.45-21.73-.634061-1.0625-.998014-2.2642-1.06-3.5.314569-2.90865 1.63782-5.6153 3.74-7.65 2.0347-2.10218 4.74135-3.425431 7.65-3.74 1.2688.0712787 2.5041.433998 3.61 1.06 1.3.57 12.77 7.24 18.88 10.82l1.38.82c.3933.2649.8006.5086 1.22.73l.65.41 21.71 12.86c-.2491-2.425-.9905-4.7738-2.1786-6.9024-1.1881-2.1287-2.7981-3.9926-4.7314-5.4776.5303-.2365 1.0447-.5071 1.54-.81 4.32-2.69 20-11.8 21.57-12.45 1.0878-.642821 2.3176-1.0069419 3.58-1.06 2.8803.332523 5.5558 1.65441 7.57 3.74zm-40 47.05 4.64-4.64c.1537-.1475.2759-.3245.3594-.5204.0836-.1959.1266-.4066.1266-.6196s-.043-.4237-.1266-.6196c-.0835-.1959-.2057-.3729-.3594-.5204l-4.64-4.64c-.1475-.1537-.3245-.2759-.5204-.3594-.1959-.0836-.4066-.1266-.6196-.1266s-.4237.043-.6196.1266c-.1959.0835-.3729.2057-.5204.3594l-4.64 4.64c-.1537.1475-.2759.3245-.3594.5204-.0836.1959-.1266.4066-.1266.6196s.043.4237.1266.6196c.0835.1959.2057.3729.3594.5204l4.64 4.64c.3127.2656.7097.4115 1.12.4115s.8073-.1459 1.12-.4115z" fill="#ff694a"/><path d="m205.26 42.32c-1.403-3.1385-3.694-5.7979-6.59-7.65-2.936-1.8031-6.325-2.7295-9.77-2.67-2.75-.0843-5.474.5536-7.9 1.85-2.266 1.1361-4.134 2.9315-5.36 5.15v-19.95h-12.64v56.23h12.54v-6.35c1.231 2.2126 3.103 4.001 5.37 5.13 2.458 1.3091 5.216 1.9536 8 1.87 3.436.0774 6.814-.8884 9.69-2.7699 2.908-1.9302 5.219-4.6355 6.67-7.8101 1.638-3.6294 2.444-7.5789 2.36-11.5599.08-3.9527-.73-7.8727-2.37-11.4701zm-12.78 20.8301c-.899 1.0243-2.006 1.8451-3.248 2.4073-1.242.5623-2.589.8531-3.952.8531s-2.71-.2908-3.952-.8531c-1.242-.5622-2.349-1.383-3.248-2.4073-1.71-2.1501-2.52-5.1501-2.52-9.1501s.81-6.9199 2.52-9.1199c.902-1.0153 2.008-1.8294 3.245-2.3893 1.238-.5599 2.579-.8532 3.937-.8607 1.358-.0076 2.703.2708 3.946.8169 1.244.5462 2.359 1.3479 3.272 2.353 1.71 2.12 2.53 5.13 2.53 9-.01 4.0601-.82 7.2-2.53 9.3501z" fill="#fff"/><path d="m175.64 13.9099v5.14h-12.62v-.98z" fill="#fff"/><path d="m401.31 75.89c1.09 0 1.98-.84 1.98-2.02s-.89-2.02-1.98-2.02c-1.1 0-1.99.84-1.99 2.02s.89 2.02 1.99 2.02zm0-.49c-.84 0-1.44-.6-1.44-1.53s.6-1.53 1.44-1.53 1.43.6 1.43 1.53-.59 1.53-1.43 1.53zm-.81-.56h.57v-.6h.29l.3.6h.6l-.41-.77c.23-.11.35-.31.35-.54 0-.45-.35-.66-.81-.66h-.89zm.57-1v-.54h.21c.2 0 .3.12.3.26 0 .15-.1.28-.3.28z" fill="#fff"/></g></svg>

<svg width="404" height="90" viewBox="0 0 404 90" fill="none" xmlns="http://www.w3.org/2000/svg">
<g clip-path="url(#clip0_1012_129)">
<path d="M256 48.2601C256 30.9001 266.23 20.3201 279.89 20.3201C282.691 20.3363 285.458 20.9391 288.012 22.0896C290.567 23.2401 292.852 24.9128 294.72 27.0001L291 31.4101C289.634 29.8296 287.946 28.5595 286.048 27.685C284.151 26.8106 282.089 26.352 280 26.3401C269.83 26.3401 263.07 34.6701 263.07 48.0701C263.07 61.4701 269.52 70.0701 279.73 70.0701C284.87 70.0701 288.73 67.8401 292.2 64.0701L296 68.3301C291.74 73.2701 286.48 76.1001 279.48 76.1001C266.08 76.1001 256 65.7301 256 48.2601Z" fill="white"/>
<path d="M299.6 55.24C299.6 41.94 308.3 34.24 318.07 34.24C327.84 34.24 336.54 41.91 336.54 55.24C336.54 68.57 327.84 76.1 318.07 76.1C308.3 76.1 299.6 68.44 299.6 55.24ZM329.6 55.24C329.6 46.11 324.96 39.89 318.1 39.89C311.24 39.89 306.6 46.11 306.6 55.24C306.6 64.37 311.25 70.49 318.1 70.49C324.95 70.49 329.57 64.37 329.57 55.24H329.6Z" fill="white"/>
<path d="M344.22 35.2599H350.22L350.32 42.5199C353.1 37.4599 357.39 34.2699 361.88 34.2699C363.341 34.2059 364.797 34.4868 366.13 35.0899L364.91 40.9999C363.672 40.5577 362.365 40.3377 361.05 40.3499C357.68 40.3499 353.66 42.7699 350.96 49.5099V75.1099H344.22V35.2599Z" fill="white"/>
<path d="M366.1 55.24C366.1 42.24 374.85 34.24 384.02 34.24C394.19 34.24 399.93 41.54 399.93 52.95C399.941 54.2338 399.834 55.5159 399.61 56.78H372.77C373.25 65.22 378.41 70.7 386.01 70.7C389.565 70.6737 393.026 69.5606 395.93 67.51L398.35 72C394.475 74.6625 389.891 76.1012 385.19 76.13C374.56 76.1 366.1 68.33 366.1 55.24ZM394 52C394 44 390.4 39.67 384.17 39.67C378.57 39.67 373.56 44.17 372.74 52H394Z" fill="white"/>
<path d="M154.15 13.9199V75.3699H141.7V69.0999C140.41 71.2981 138.514 73.0789 136.24 74.2299C133.753 75.4616 131.015 76.1016 128.24 76.0999C124.792 76.1849 121.403 75.1883 118.55 73.2499C115.644 71.3173 113.334 68.6127 111.88 65.4399C110.251 61.8077 109.445 57.8601 109.52 53.8799C109.436 49.9247 110.242 46.0012 111.88 42.3999C113.335 39.2945 115.614 36.6482 118.47 34.7499C121.389 32.9073 124.79 31.9744 128.24 32.0699C130.932 32.0391 133.593 32.6529 136 33.8599C138.25 34.9823 140.138 36.715 141.45 38.8599V18.0699L154.15 13.9199ZM139.15 63.2399C140.78 61.1199 141.68 58.0299 141.68 54.0399C141.68 50.0499 140.86 47.0399 139.15 44.9299C138.249 43.9126 137.145 43.0966 135.907 42.5349C134.67 41.9732 133.329 41.6785 131.97 41.67C130.611 41.6615 129.266 41.9394 128.022 42.4856C126.778 43.0318 125.663 43.834 124.75 44.8399C123.04 46.9599 122.14 49.9699 122.14 53.8399C122.14 57.7099 123.04 60.9199 124.75 63.1199C125.611 64.2087 126.716 65.0807 127.975 65.6659C129.234 66.2511 130.612 66.5333 132 66.4899C133.367 66.5565 134.731 66.2964 135.978 65.7312C137.225 65.1661 138.319 64.3121 139.17 63.2399H139.15Z" fill="white"/>
<path d="M225 42.48V58.92C224.88 59.8214 224.966 60.7383 225.252 61.6015C225.538 62.4647 226.016 63.2517 226.651 63.9028C227.286 64.554 228.06 65.0523 228.916 65.3602C229.771 65.6681 230.686 65.7774 231.59 65.68C232.991 65.658 234.385 65.4666 235.74 65.11V74.88C233.427 75.6856 230.988 76.0651 228.54 76C223.333 76 219.333 74.5333 216.54 71.6C213.747 68.6667 212.363 64.5167 212.39 59.15V23.11L225 19V33H235.74V42.44L225 42.48Z" fill="white"/>
<path d="M86.19 3.74C88.3187 5.76368 89.6674 8.47181 90 11.39C89.9702 12.6575 89.6266 13.8978 89 15C88.26 16.54 79.23 32.17 76.54 36.48C75.0003 39.0373 74.1846 41.965 74.18 44.95C74.1737 47.9334 74.9903 50.8607 76.54 53.41C79.19 57.7 88.22 73.41 89 75C89.6147 76.0527 89.9584 77.2416 90 78.46C89.6193 81.3242 88.3066 83.9836 86.2643 86.0277C84.2221 88.0717 81.5639 89.3868 78.7 89.77C77.4606 89.7297 76.2535 89.3642 75.2 88.71C73.74 88 57.79 79.19 53.47 76.5C53.15 76.34 52.82 76.1 52.41 75.93L31.09 63.32C31.5455 67.4143 33.3833 71.2309 36.3 74.14C36.859 74.6987 37.4572 75.2167 38.09 75.69C37.5574 75.9283 37.0398 76.1988 36.54 76.5C32.23 79.19 16.52 88.22 15 89C13.9018 89.6362 12.659 89.9805 11.39 90C8.50046 89.7092 5.81442 88.3804 3.83 86.26C1.69884 84.2398 0.343537 81.5363 0 78.62C0.0647854 77.3847 0.428539 76.1837 1.06 75.12C1.79 73.57 10.82 57.87 13.51 53.55C15.0641 51.0026 15.881 48.074 15.87 45.09C15.8797 42.103 15.0629 39.1716 13.51 36.62C10.82 32.15 1.71 16.44 1.06 14.89C0.425939 13.8275 0.061986 12.6258 0 11.39C0.314569 8.48135 1.63782 5.7747 3.74 3.74C5.7747 1.63782 8.48135 0.314569 11.39 0C12.6588 0.0712787 13.8941 0.433998 15 1.06C16.3 1.63 27.77 8.3 33.88 11.88L35.26 12.7C35.6533 12.9649 36.0606 13.2086 36.48 13.43L37.13 13.84L58.84 26.7C58.5909 24.275 57.8495 21.9262 56.6614 19.7976C55.4733 17.6689 53.8633 15.805 51.93 14.32C52.4603 14.0835 52.9747 13.8129 53.47 13.51C57.79 10.82 73.47 1.71 75.04 1.06C76.1278 0.417179 77.3576 0.0530581 78.62 0C81.5003 0.332523 84.1758 1.65441 86.19 3.74ZM46.19 50.79L50.83 46.15C50.9837 46.0025 51.1059 45.8255 51.1894 45.6296C51.273 45.4337 51.316 45.223 51.316 45.01C51.316 44.797 51.273 44.5863 51.1894 44.3904C51.1059 44.1945 50.9837 44.0175 50.83 43.87L46.19 39.23C46.0425 39.0763 45.8655 38.9541 45.6696 38.8706C45.4737 38.787 45.263 38.744 45.05 38.744C44.837 38.744 44.6263 38.787 44.4304 38.8706C44.2345 38.9541 44.0575 39.0763 43.91 39.23L39.27 43.87C39.1163 44.0175 38.9941 44.1945 38.9106 44.3904C38.827 44.5863 38.784 44.797 38.784 45.01C38.784 45.223 38.827 45.4337 38.9106 45.6296C38.9941 45.8255 39.1163 46.0025 39.27 46.15L43.91 50.79C44.2227 51.0556 44.6197 51.2015 45.03 51.2015C45.4403 51.2015 45.8373 51.0556 46.15 50.79H46.19Z" fill="#FF694A"/>
<path d="M205.26 42.32C203.857 39.1815 201.566 36.5221 198.67 34.67C195.734 32.8669 192.345 31.9405 188.9 32C186.15 31.9157 183.426 32.5536 181 33.85C178.734 34.9861 176.866 36.7815 175.64 39V19.05H163V75.28H175.54V68.93C176.771 71.1426 178.643 72.931 180.91 74.06C183.368 75.3691 186.126 76.0136 188.91 75.93C192.346 76.0074 195.724 75.0416 198.6 73.1601C201.508 71.2299 203.819 68.5246 205.27 65.35C206.908 61.7206 207.714 57.7711 207.63 53.7901C207.71 49.8374 206.9 45.9174 205.26 42.32ZM192.48 63.1501C191.581 64.1744 190.474 64.9952 189.232 65.5574C187.99 66.1197 186.643 66.4105 185.28 66.4105C183.917 66.4105 182.57 66.1197 181.328 65.5574C180.086 64.9952 178.979 64.1744 178.08 63.1501C176.37 61 175.56 58 175.56 54C175.56 50 176.37 47.0801 178.08 44.8801C178.982 43.8648 180.088 43.0507 181.325 42.4908C182.563 41.9309 183.904 41.6376 185.262 41.6301C186.62 41.6225 187.965 41.9009 189.208 42.447C190.452 42.9932 191.567 43.7949 192.48 44.8C194.19 46.92 195.01 49.93 195.01 53.8C195 57.8601 194.19 61 192.48 63.1501Z" fill="white"/>
<path d="M175.64 13.9099V19.0499H163.02V18.0699L175.64 13.9099Z" fill="white"/>
<path d="M401.31 75.89C402.4 75.89 403.29 75.05 403.29 73.87C403.29 72.69 402.4 71.85 401.31 71.85C400.21 71.85 399.32 72.69 399.32 73.87C399.32 75.05 400.21 75.89 401.31 75.89ZM401.31 75.4C400.47 75.4 399.87 74.8 399.87 73.87C399.87 72.94 400.47 72.34 401.31 72.34C402.15 72.34 402.74 72.94 402.74 73.87C402.74 74.8 402.15 75.4 401.31 75.4ZM400.5 74.84H401.07V74.24H401.36L401.66 74.84H402.26L401.85 74.07C402.08 73.96 402.2 73.76 402.2 73.53C402.2 73.08 401.85 72.87 401.39 72.87H400.5V74.84ZM401.07 73.84V73.3H401.28C401.48 73.3 401.58 73.42 401.58 73.56C401.58 73.71 401.48 73.84 401.28 73.84H401.07Z" fill="white"/>
</g>
<defs>
<clipPath id="clip0_1012_129">
<rect width="404" height="90" fill="white"/>
</clipPath>
</defs>
</svg>
